X: 22210
T: La Ciapa Rusa
R: mazurka
M: 3/4
K: Cmajor
A^G AB cd|e2c2A2|fe de fa|e2c2A2|
[1 BE dE cE|B2B2z2:|2 B2e2e2|A2A2z2||
|:ec Ae cA|ec Ae cA|fc Af cA|fc Af cA|
[1ed Be dB|ed Be dB|e2 cB cd|B6:|
[2 ed cB cd|e2c2A2|d2c2B2|A2A2z2:|

